images/新建产品/u4913_selectedDisabled.svg

<svg xmlns="http://www.w3.org/2000/svg" width="12" height="12" viewBox="293 484 12 12"><path fill="#f0f0f0" d="M299 484c3.36 0 6 2.64 6 6s-2.64 6-6 6-6-2.64-6-6 2.64-6 6-6"/><path fill="none" stroke="#797979" d="M299 484.5c3.08 0 5.5 2.42 5.5 5.5s-2.42 5.5-5.5 5.5-5.5-2.42-5.5-5.5 2.42-5.5 5.5-5.5Z"/><path fill="#797979" d="M299 493c-1.68 0-3-1.32-3-3s1.32-3 3-3 3 1.32 3 3-1.32 3-3 3"/></svg>

﻿<?xml version="1.0" encoding="utf-8"?>
<svg version="1.1" xmlns:xlink="http://www.w3.org/1999/xlink" width="12px" height="12px" viewBox="293 484  12 12" xmlns="http://www.w3.org/2000/svg">
  <path d="M 299 484  C 302.36 484  305 486.64  305 490  C 305 493.36  302.36 496  299 496  C 295.64 496  293 493.36  293 490  C 293 486.64  295.64 484  299 484  Z " fill-rule="nonzero" fill="#f0f0f0" stroke="none" />
  <path d="M 299 484.5  C 302.08 484.5  304.5 486.92  304.5 490  C 304.5 493.08  302.08 495.5  299 495.5  C 295.92 495.5  293.5 493.08  293.5 490  C 293.5 486.92  295.92 484.5  299 484.5  Z " stroke-width="1" stroke="#797979" fill="none" />
  <path d="M 299 493  C 297.32 493  296 491.68  296 490  C 296 488.32  297.32 487  299 487  C 300.68 487  302 488.32  302 490  C 302 491.68  300.68 493  299 493  " fill-rule="nonzero" fill="#797979" stroke="none" />
</svg>
